X: 686
T: Evlerinin Önü Handır
C: (Anonim)
O: Turkey
F: http://compmusic.upf.edu/node/140
N: muhayyerkurdi--turku--oynak--evlerinin_onu--
N: makam= muhayyerkurdi
N: form= turku
N: usul= oynak = 9/8
M: 9/8
L: 1/16
K: C _B   
Q: 1/4=216
%%MIDI tuningsystem comma53
e2f2 f2f3efe fge4 | d2 d2d2 d3c dcde c4  | \
w:  ARANAĞME  |   | 
A2B2 B2B3ABA BcA4 | 
w:   | 
e2 f2f2 f3e fefg e4  | d2d2 d2d3cdc dec4 | \
w:  ARANAĞME  |   | 
A2 B2B2 B3A BABc A4  | 
w:   | 
g4 a2a4a4g2 a2 | b4a2 a3g gffe f4  | \
w:  Ev le ri nin  ö  |  nü  *  han *  dır_ *  a *  man    | 
e2f2 a2g2 f2e2 d2c2 d2 | 
w:  Ya nar  da  yü *  re *  ğim   | 
e2 d2c2 cBBA A8  | e2f2 a2g2 f2e2 d2c2 d2 | \
w:  kül *  *  han *  *  *  dır    |  Ya nar  da  yü *  re *  ğim   | 
e2 d2c2 cBBA A4 a4  | 
w:  kül *  *  han *  *  *  dır   SAZ  | 
g4 a2a4a4g2 a2 | b4a2 a3g gffe f4  | \
w:  Gör me ye li  çok   |  za *  man *  dır_ *  a *  man    | 
e2f2 a2g2 f2e2 d2c2 d2 | 
w:  Ya  ben  de  o  gü ze le  yal  | 
e2 d2c2 cBBA A8  | e2f2 a2g2 f2e2 d2c2 d2 | \
w:  va *  ra yım  *  *  *  mı    |  Ö lür se  ka re le ri  bağ  | 
e2 d2c2 cBBA A4 f4  | 
w:  la *  ya yım  *  *  *  mı   SAZ  | 
f2f2 f2f3ef2 g2e4 | d2 d2d2 d3c d2e2 c4  | \
w:  Hay din di  hop *  la  da  gel   |  fis ta nı  top *  la  da  gel    | 
A2B2 B2B3AB2 c2A4 | 
w:  Ce bi ni  yok *  la  da  gel   | 
e2 f2f2 f3e f2g2 e4  | d2d2 d2d3cd2 e2c4 | \
w:  hay din di  al *  lı  gü zel    |  Leb le ri  bal *  lı  gü zel   | 
A2 B2B2 B3A B2c2 A4  | 
w:  ger da nı  ben *  li  gü zel    | 
e2f2 f2f3efe fge4 | d2 d2d2 d3c dcde c4  | \
w:  ARANAĞME  |   | 
A2B2 B2B3ABA BcA4 | 
w:   | 
e2 f2f2 f3e fefg e4  | d2d2 d2d3cdc dec4 | \
w:  ARANAĞME  |   | 
A2 B2B2 B3A BABc A4  | 
w:   | 
g4 a2a4a4g2 a2 | b4a2 a3g gffe f4  | \
w:  Ev le ri nin  ö  |  nü  *  han *  dır_ *  a *  man    | 
e2f2 a2g2 f2e2 d2c2 d2 | 
w:  Ya nar  da  yü *  re *  ğim   | 
e2 d2c2 cBBA A8  | e2f2 a2g2 f2e2 d2c2 d2 | \
w:  kül *  *  han *  *  *  dır    |  Ya nar  da  yü *  re *  ğim   | 
e2 d2c2 cBBA A4 a4  | 
w:  kül *  *  han *  *  *  dır   SAZ  | 
g4 a2a4a4g2 a2 | b4a2 a3g gffe f4  | \
w:  Gör me ye li  çok   |  za *  man *  dır_ *  a *  man    | 
e2f2 a2g2 f2e2 d2c2 d2 | 
w:  Ya  ben  de  o  gü ze le  yal  | 
e2 d2c2 cBBA A8  | e2f2 a2g2 f2e2 d2c2 d2 | \
w:  va *  ra yım  *  *  *  mı    |  Ö lür se  ka re le ri  bağ  | 
e2 d2c2 cBBA A4 f4  | 
w:  la *  ya yım  *  *  *  mı   SAZ  | 
f2f2 f2f3ef2 g2e4 | d2 d2d2 d3c d2e2 c4  | \
w:  Hay din di  hop *  la  da  gel   |  fis ta nı  top *  la  da  gel    | 
A2B2 B2B3AB2 c2A4 | 
w:  Ce bi ni  yok *  la  da  gel   | 
e2 f2f2 f3e f2g2 e4  | d2d2 d2d3cd2 e2c4 | \
w:  hay din di  al *  lı  gü zel    |  Leb le ri  bal *  lı  gü zel   | 
A2 B2B2 B3A B2c2 A4  | 
w:  ger da nı  ben *  li  gü zel    | 
|


